X:85
T:Argyle's Courtship
Z:Jack Campin - http://www.campin.me.uk
S:Blaikie MS (NLS MS.1578) p25, Blaikie #79
M:3/4
L:1/8
V:1 midi program 1 74
V:2 midi program 1 46 bass middle = d transpose -24
Q:1/4=84
K:F
[V:1] F2|FA c2 cf|dc    B3  G|Ac {B}A2 GF|FA  C3  C|
[V:2] z2|F2 f2 f2|ba    g2 e2|f2    f2 f2|F2  A2 A2|
%
[V:1]    FD C2 CD|FG/A/ B2 AG|Ac    G3  B|A>G F2  |]
[V:2]    B2 A2 F2|f2    e2 c2|f2    c2 e2|f2  F2  |]
W:Transcription (c) Jack Campin 2009, no mirroring or republication without permission

